; generated by Slic3r 1.3.0-dev on 2018-01-14 at 11:20:30

; external perimeters extrusion width = 0.40mm (6.04mm^3/s)
; perimeters extrusion width = 0.48mm (15.08mm^3/s)
; infill extrusion width = 0.48mm (18.85mm^3/s)
; solid infill extrusion width = 0.48mm (5.65mm^3/s)
; top infill extrusion width = 0.48mm (1.41mm^3/s)

M107
M190 S65 ; set bed temperature and wait for it to be reached
M104 S210 ; set temperature
G21 ; metric
G90 ; absolute positioning
M82 ; extruder absolute mode
G28 ; home all axes
G29 P5 Z0.4 ; autolevel (5x5 matrix)
; Filament gcode

M109 S210 ; set temperature and wait for it to be reached
G21 ; set units to millimeters
G90 ; use absolute coordinates
M82 ; use absolute distances for extrusion
G92 E0
G1 Z0.450 F9000.000
G1 E-2.50000 F3900.00000
G92 E0
G1 X20.000 Y-36.578 F9000.000
G1 E2.50000 F3900.00000
G1 F3600
G1 X20.711 Y-36.550 E2.57696
G1 X21.395 Y-36.478 E2.65139
G1 X21.756 Y-36.421 E2.69104
G1 X22.430 Y-36.278 E2.76554
G1 X22.784 Y-36.183 E2.80519
G1 X23.439 Y-35.970 E2.87978
G1 X23.781 Y-35.839 E2.91943
G1 X24.410 Y-35.559 E2.99390
G1 X25.025 Y-35.237 E3.06901
G1 X37.275 Y-28.205 E4.59752
G1 X39.029 Y-26.741 E4.84483
G1 X40.176 Y-24.764 E5.09214
G1 X40.578 Y-22.500 E5.34102
G1 X40.578 Y22.500 E10.21080
G1 X40.181 Y24.751 E10.45811
G1 X39.038 Y26.730 E10.70542
G1 X37.275 Y28.205 E10.95430
G1 X24.736 Y35.393 E12.51826
G1 X24.410 Y35.559 E12.55791
G1 X23.781 Y35.839 E12.63239
G1 X23.439 Y35.970 E12.67203
G1 X22.784 Y36.183 E12.74660
G1 X22.430 Y36.278 E12.78627
G1 X21.756 Y36.421 E12.86078
G1 X21.395 Y36.478 E12.90043
G1 X20.711 Y36.550 E12.97485
G1 X20.000 Y36.578 E13.05181
G1 X-20.000 Y36.578 E17.38050
G1 X-20.711 Y36.550 E17.45746
G1 X-21.394 Y36.478 E17.53185
G1 X-21.756 Y36.421 E17.57154
G1 X-22.430 Y36.278 E17.64605
G1 X-22.784 Y36.183 E17.68570
G1 X-23.439 Y35.970 E17.76028
G1 X-23.781 Y35.839 E17.79993
G1 X-24.410 Y35.559 E17.87438
G1 X-25.025 Y35.237 E17.94951
G1 X-37.275 Y28.205 E19.47802
G1 X-39.029 Y26.741 E19.72533
G1 X-40.176 Y24.764 E19.97264
G1 X-40.578 Y22.500 E20.22152
G1 X-40.578 Y-22.500 E25.09130
G1 X-40.181 Y-24.751 E25.33861
G1 X-39.038 Y-26.730 E25.58592
G1 X-37.275 Y-28.205 E25.83480
G1 X-25.025 Y-35.237 E27.36331
G1 X-24.410 Y-35.559 E27.43842
G1 X-23.781 Y-35.839 E27.51289
G1 X-23.439 Y-35.970 E27.55253
G1 X-22.784 Y-36.183 E27.62713
G1 X-22.430 Y-36.278 E27.66678
G1 X-21.756 Y-36.421 E27.74128
G1 X-20.711 Y-36.550 E27.85530
G1 X-20.000 Y-36.578 E27.93228
G1 X19.940 Y-36.578 E32.25448
G1 E29.75448 F3900.00000
G92 E0
G1 X-19.792 Y24.522 F9000.000
G1 E2.50000 F3900.00000
G1 F900
G1 X-19.385 Y24.608 E2.54501
G1 X-19.005 Y24.777 E2.59000
G1 X-18.669 Y25.022 E2.63501
G1 X-18.391 Y25.331 E2.68002
G1 X-18.183 Y25.691 E2.72503
G1 X-18.054 Y26.086 E2.77003
G1 X-18.011 Y26.500 E2.81504
G1 X-18.054 Y26.914 E2.86005
G1 X-18.183 Y27.309 E2.90504
G1 X-18.391 Y27.669 E2.95005
G1 X-18.669 Y27.978 E2.99506
G1 X-19.005 Y28.223 E3.04007
G1 X-19.385 Y28.392 E3.08507
G1 X-19.792 Y28.478 E3.13007
G1 X-20.208 Y28.478 E3.17510
G1 X-20.615 Y28.392 E3.22010
G1 X-20.995 Y28.223 E3.26510
G1 X-21.331 Y27.978 E3.31011
G1 X-21.609 Y27.669 E3.35512
G1 X-21.817 Y27.309 E3.40013
G1 X-21.946 Y26.914 E3.44512
G1 X-21.989 Y26.500 E3.49013
G1 X-21.946 Y26.086 E3.53514
G1 X-21.817 Y25.691 E3.58014
G1 X-21.609 Y25.331 E3.62515
G1 X-21.331 Y25.022 E3.67016
G1 X-20.995 Y24.777 E3.71517
G1 X-20.615 Y24.608 E3.76016
G1 X-20.208 Y24.522 E3.80517
G1 X-19.852 Y24.522 E3.84370
G1 X-19.792 Y24.522 F9000.000
G1 E1.34370 F3900.00000
G92 E0
G1 X-9.916 Y21.166 F9000.000
G1 E2.50000 F3900.00000
G1 F900
G1 X-9.916 Y17.834 E2.86056
G1 X-4.084 Y17.834 E3.49167
G1 X-4.084 Y21.166 E3.85224
G1 X-9.856 Y21.166 E4.47685
G1 X-9.337 Y20.587 F9000.000
G1 F900
G1 X-9.337 Y18.413 E4.71222
G1 X-4.663 Y18.413 E5.21814
G1 X-4.663 Y20.587 E5.45351
G1 X-9.277 Y20.587 E5.95293
G1 X-9.733 Y20.645 F9000.000
G1 E3.45293 F3900.00000
G92 E0
G1 X-17.994 Y21.006 F9000.000
G1 E2.50000 F3900.00000
G1 F3600
G1 X-17.994 Y24.082 E2.83288
G1 X-18.424 Y23.770 E2.89032
G1 X-19.026 Y23.502 E2.96161
G1 X-19.670 Y23.365 E3.03293
G1 X-20.330 Y23.365 E3.10430
G1 X-20.974 Y23.502 E3.17562
G1 X-21.576 Y23.770 E3.24691
G1 X-22.006 Y24.082 E3.30435
G1 X-22.006 Y21.006 E3.63723
G1 X-32.506 Y21.006 E4.77351
G1 X-32.506 Y19.244 E4.96411
G1 X-24.930 Y19.244 E5.78398
G1 X-24.227 Y19.178 E5.86035
G1 X-23.688 Y19.039 E5.92062
G1 X-23.192 Y18.843 E5.97834
G1 X-22.724 Y18.586 E6.03607
G1 X-22.293 Y18.273 E6.09377
G1 X-21.904 Y17.908 E6.15150
G1 X-21.562 Y17.494 E6.20953
G1 X-10.494 Y17.494 E7.40725
G1 X-10.494 Y21.006 E7.78723
G1 X-17.934 Y21.006 E8.59237
G1 E6.09237 F3900.00000
G92 E0
G1 X-3.506 Y21.006 F9000.000
G1 E2.50000 F3900.00000
G1 F900
G1 X-3.506 Y19.008 E2.71618
G1 X-3.235 Y18.947 E2.74625
G1 X-3.117 Y19.230 E2.77937
G1 X-3.017 Y19.686 E2.82996
G1 X-2.994 Y20.047 E2.86907
G1 X-2.994 Y21.006 E2.97281
G1 X-3.446 Y21.006 E3.02165
G1 E0.52165 F3900.00000
G92 E0
G1 X-17.416 Y21.584 F9000.000
G1 E2.50000 F3900.00000
G1 F3600
G1 X-17.416 Y25.347 E2.90726
G1 X-17.673 Y25.416 E2.93608
G1 X-17.920 Y24.989 E2.98950
G1 X-18.280 Y24.589 E3.04767
G1 X-18.715 Y24.273 E3.10584
G1 X-19.205 Y24.055 E3.16399
G1 X-19.731 Y23.943 E3.22215
G1 X-20.269 Y23.943 E3.28035
G1 X-20.795 Y24.055 E3.33851
G1 X-21.285 Y24.273 E3.39665
G1 X-21.720 Y24.589 E3.45482
G1 X-22.080 Y24.989 E3.51300
G1 X-22.327 Y25.416 E3.56642
G1 X-22.584 Y25.347 E3.59524
G1 X-22.584 Y21.584 E4.00250
G1 X-33.084 Y21.584 E5.13878
G1 X-33.084 Y18.666 E5.45457
G1 X-24.957 Y18.666 E6.33408
G1 X-24.327 Y18.606 E6.40257
G1 X-23.867 Y18.488 E6.45398
G1 X-23.438 Y18.319 E6.50383
G1 X-23.035 Y18.097 E6.55367
G1 X-22.662 Y17.826 E6.60351
G1 X-22.326 Y17.511 E6.65336
G1 X-22.033 Y17.156 E6.70322
G1 X-21.881 Y16.916 E6.73395
G1 X-5.529 Y16.916 E8.50350
G1 X-5.114 Y16.942 E8.54850
G1 X-4.734 Y17.015 E8.59039
G1 X-4.365 Y17.134 E8.63228
G1 X-4.015 Y17.299 E8.67417
G1 X-3.546 Y17.615 E8.73540
G1 X-3.253 Y17.890 E8.77885
G1 X-3.006 Y18.188 E8.82075
G1 X-2.799 Y18.516 E8.86271
G1 X-2.567 Y19.049 E8.92568
G1 X-2.442 Y19.614 E8.98822
G1 X-2.416 Y20.029 E9.03323
G1 X-2.416 Y21.584 E9.20154
G1 X-17.356 Y21.584 E10.81830
G1 E8.31830 F3900.00000
G92 E0
G1 X-32.506 Y10.756 F9000.000
G1 E2.50000 F3900.00000
G1 F3600
G1 X-32.506 Y4.245 E3.20459
G1 X-24.733 Y4.239 E4.04576
G1 X-24.204 Y4.172 E4.10341
G1 X-23.688 Y4.039 E4.16114
G1 X-23.192 Y3.843 E4.21886
G1 X-22.724 Y3.586 E4.27658
G1 X-22.312 Y3.287 E4.33169
G1 X-2.998 Y9.192 E6.51727
G1 X-3.002 Y10.154 E6.62147
G1 X-3.045 Y10.492 E6.65832
G1 X-3.173 Y10.922 E6.70690
G1 X-3.375 Y11.325 E6.75565
G1 X-3.659 Y11.697 E6.80626
G1 X-3.905 Y11.928 E6.84281
G1 X-4.159 Y12.113 E6.87681
G1 X-4.556 Y12.320 E6.92528
G1 X-4.878 Y12.424 E6.96185
G1 X-5.320 Y12.498 E7.01032
G1 X-21.562 Y12.505 E8.76809
G1 X-21.904 Y12.092 E8.82605
G1 X-22.293 Y11.727 E8.88378
G1 X-22.724 Y11.414 E8.94148
G1 X-23.192 Y11.157 E8.99921
G1 X-23.688 Y10.961 E9.05694
G1 X-24.227 Y10.822 E9.11721
G1 X-24.930 Y10.756 E9.19358
G1 X-32.446 Y10.756 E10.00695
G1 X-33.084 Y11.334 F9000.000
G1 F3600
G1 X-33.084 Y3.667 E10.83669
G1 X-24.769 Y3.660 E11.73649
G1 X-24.313 Y3.603 E11.78629
G1 X-23.867 Y3.488 E11.83614
G1 X-23.438 Y3.319 E11.88598
G1 X-23.035 Y3.097 E11.93582
G1 X-22.662 Y2.826 E11.98566
G1 X-22.460 Y2.637 E12.01561
G1 X-2.418 Y8.764 E14.28360
G1 X-2.424 Y10.192 E14.43812
G1 X-2.474 Y10.592 E14.48174
G1 X-2.634 Y11.135 E14.54305
G1 X-2.890 Y11.642 E14.60447
G1 X-3.243 Y12.100 E14.66703
G1 X-3.535 Y12.375 E14.71047
G1 X-3.848 Y12.602 E14.75235
G1 X-4.352 Y12.861 E14.81359
G1 X-4.734 Y12.985 E14.85705
G1 X-5.292 Y13.076 E14.91830
G1 X-21.881 Y13.084 E16.71346
G1 X-22.033 Y12.844 E16.74417
G1 X-22.326 Y12.489 E16.79402
G1 X-22.662 Y12.174 E16.84387
G1 X-23.035 Y11.903 E16.89371
G1 X-23.438 Y11.681 E16.94356
G1 X-23.867 Y11.512 E16.99340
G1 X-24.327 Y11.394 E17.04481
G1 X-24.957 Y11.334 E17.11330
G1 X-33.024 Y11.334 E17.98632
G1 E15.48632 F3900.00000
G92 E0
G1 X-32.506 Y-4.245 F9000.000
G1 E2.50000 F3900.00000
G1 F3600
G1 X-32.506 Y-10.755 E3.20455
G1 X-24.733 Y-10.761 E4.04572
G1 X-24.204 Y-10.828 E4.10338
G1 X-23.688 Y-10.961 E4.16109
G1 X-23.192 Y-11.157 E4.21882
G1 X-22.724 Y-11.414 E4.27654
G1 X-22.312 Y-11.713 E4.33165
G1 X-2.994 Y-5.807 E6.51769
G1 X-2.994 Y3.976 E7.57642
G1 X-21.040 Y-1.541 E9.61853
G1 X-21.278 Y-2.046 E9.67895
G1 X-21.564 Y-2.496 E9.73666
G1 X-21.904 Y-2.908 E9.79439
G1 X-22.293 Y-3.273 E9.85212
G1 X-22.724 Y-3.586 E9.90984
G1 X-23.192 Y-3.843 E9.96755
G1 X-23.688 Y-4.039 E10.02528
G1 X-24.204 Y-4.172 E10.08300
G1 X-24.733 Y-4.239 E10.14065
G1 X-32.446 Y-4.245 E10.97533
G1 X-33.084 Y-3.667 F9000.000
G1 F3600
G1 X-33.084 Y-11.333 E11.80498
G1 X-24.769 Y-11.340 E12.70478
G1 X-24.313 Y-11.397 E12.75458
G1 X-23.867 Y-11.512 E12.80442
G1 X-23.438 Y-11.681 E12.85427
G1 X-23.035 Y-11.903 E12.90412
G1 X-22.662 Y-12.174 E12.95395
G1 X-22.460 Y-12.363 E12.98390
G1 X-2.416 Y-6.235 E15.25217
G1 X-2.416 Y4.758 E16.44181
G1 X-21.501 Y-1.077 E18.60152
G1 X-21.590 Y-1.350 E18.63261
G1 X-21.786 Y-1.767 E18.68245
G1 X-22.033 Y-2.156 E18.73228
G1 X-22.326 Y-2.511 E18.78214
G1 X-22.662 Y-2.826 E18.83199
G1 X-23.035 Y-3.097 E18.88183
G1 X-23.438 Y-3.319 E18.93167
G1 X-23.867 Y-3.488 E18.98152
G1 X-24.313 Y-3.603 E19.03136
G1 X-24.769 Y-3.660 E19.08117
G1 X-33.024 Y-3.667 E19.97447
G1 E17.47447 F3900.00000
G92 E0
G1 X-22.006 Y-21.006 F9000.000
G1 E2.50000 F3900.00000
G1 F3600
G1 X-22.006 Y-24.082 E2.83288
G1 X-21.576 Y-23.770 E2.89032
G1 X-20.974 Y-23.502 E2.96161
G1 X-20.330 Y-23.365 E3.03293
G1 X-19.670 Y-23.365 E3.10430
G1 X-19.026 Y-23.502 E3.17562
G1 X-18.424 Y-23.770 E3.24691
G1 X-17.994 Y-24.082 E3.30435
G1 X-17.994 Y-21.006 E3.63723
G1 X-2.994 Y-21.006 E5.26049
G1 X-2.994 Y-11.024 E6.34070
G1 X-21.040 Y-16.541 E8.38282
G1 X-21.278 Y-17.046 E8.44323
G1 X-21.564 Y-17.496 E8.50093
G1 X-21.904 Y-17.908 E8.55867
G1 X-22.293 Y-18.273 E8.61640
G1 X-22.724 Y-18.586 E8.67411
G1 X-23.192 Y-18.843 E8.73183
G1 X-23.688 Y-19.039 E8.78956
G1 X-24.204 Y-19.172 E8.84727
G1 X-24.733 Y-19.239 E8.90493
G1 X-32.506 Y-19.245 E9.74610
G1 X-32.506 Y-21.006 E9.93666
G1 X-22.066 Y-21.006 E11.06645
G1 X-22.584 Y-21.584 F9000.000
G1 F3600
G1 X-22.584 Y-25.347 E11.47371
G1 X-22.327 Y-25.416 E11.50253
G1 X-22.080 Y-24.989 E11.55595
G1 X-21.720 Y-24.589 E11.61412
G1 X-21.285 Y-24.273 E11.67229
G1 X-20.795 Y-24.055 E11.73043
G1 X-20.269 Y-23.943 E11.78860
G1 X-19.731 Y-23.943 E11.84680
G1 X-19.205 Y-24.055 E11.90496
G1 X-18.715 Y-24.273 E11.96310
G1 X-18.280 Y-24.589 E12.02127
G1 X-17.920 Y-24.989 E12.07944
G1 X-17.673 Y-25.416 E12.13287
G1 X-17.416 Y-25.347 E12.16169
G1 X-17.416 Y-21.584 E12.56895
G1 X-2.416 Y-21.584 E14.19221
G1 X-2.416 Y-10.242 E15.41960
G1 X-21.501 Y-16.077 E17.57932
G1 X-21.590 Y-16.350 E17.61040
G1 X-21.786 Y-16.767 E17.66024
G1 X-22.033 Y-17.156 E17.71007
G1 X-22.326 Y-17.511 E17.75993
G1 X-22.662 Y-17.826 E17.80978
G1 X-23.035 Y-18.097 E17.85962
G1 X-23.438 Y-18.319 E17.90946
G1 X-23.867 Y-18.488 E17.95931
G1 X-24.313 Y-18.603 E18.00915
G1 X-24.769 Y-18.660 E18.05896
G1 X-33.084 Y-18.667 E18.95876
G1 X-33.084 Y-21.584 E19.27446
G1 X-22.644 Y-21.584 E20.40425
G1 E17.90425 F3900.00000
G92 E0
G1 X-20.995 Y-24.777 F9000.000
G1 E2.50000 F3900.00000
G1 F900
G1 X-21.331 Y-25.022 E2.54501
G1 X-21.609 Y-25.331 E2.59002
G1 X-21.817 Y-25.691 E2.63503
G1 X-21.946 Y-26.086 E2.68002
G1 X-21.989 Y-26.500 E2.72503
G1 X-21.946 Y-26.914 E2.77004
G1 X-21.817 Y-27.309 E2.81504
G1 X-21.609 Y-27.669 E2.86005
G1 X-21.331 Y-27.978 E2.90506
G1 X-20.995 Y-28.223 E2.95007
G1 X-20.615 Y-28.392 E2.99506
G1 X-20.208 Y-28.479 E3.04007
G1 X-19.792 Y-28.479 E3.08509
G1 X-19.385 Y-28.392 E3.13010
G1 X-19.005 Y-28.223 E3.17510
G1 X-18.669 Y-27.978 E3.22010
G1 X-18.391 Y-27.669 E3.26512
G1 X-18.183 Y-27.309 E3.31012
G1 X-18.054 Y-26.914 E3.35512
G1 X-18.011 Y-26.500 E3.40013
G1 X-18.054 Y-26.086 E3.44514
G1 X-18.183 Y-25.691 E3.49014
G1 X-18.391 Y-25.331 E3.53514
G1 X-18.669 Y-25.022 E3.58015
G1 X-19.005 Y-24.777 E3.62516
G1 X-19.385 Y-24.608 E3.67016
G1 X-19.792 Y-24.522 E3.71517
G1 X-20.208 Y-24.522 E3.76019
G1 X-20.615 Y-24.608 E3.80520
G1 X-20.940 Y-24.753 E3.84370
G1 X-20.995 Y-24.777 F9000.000
G1 E1.34370 F3900.00000
G92 E0
G1 X-23.163 Y-22.163 F9000.000
G1 E2.50000 F3900.00000
G1 F1800
G1 X-23.163 Y-26.491 E2.96843
G1 X-23.145 Y-26.830 E3.00521
G1 X-23.093 Y-27.157 E3.04103
G1 X-23.007 Y-27.477 E3.07685
G1 X-22.889 Y-27.786 E3.11267
G1 X-22.738 Y-28.081 E3.14848
G1 X-22.558 Y-28.359 E3.18429
G1 X-22.350 Y-28.616 E3.22012
G1 X-22.116 Y-28.850 E3.25593
G1 X-21.859 Y-29.058 E3.29176
G1 X-21.581 Y-29.238 E3.32757
G1 X-21.286 Y-29.389 E3.36338
G1 X-20.977 Y-29.507 E3.39920
G1 X-20.657 Y-29.593 E3.43502
G1 X-20.332 Y-29.644 E3.47071
G1 X-19.974 Y-29.661 E3.50948
G1 X-19.669 Y-29.645 E3.54246
G1 X-19.343 Y-29.593 E3.57828
G1 X-19.023 Y-29.507 E3.61410
G1 X-18.714 Y-29.389 E3.64991
G1 X-18.419 Y-29.238 E3.68573
G1 X-18.141 Y-29.058 E3.72154
G1 X-17.884 Y-28.850 E3.75737
G1 X-17.650 Y-28.616 E3.79317
G1 X-17.442 Y-28.359 E3.82900
G1 X-17.276 Y-28.103 E3.86197
G1 X-17.111 Y-27.785 E3.90075
G1 X-16.993 Y-27.477 E3.93643
G1 X-16.907 Y-27.157 E3.97225
G1 X-16.855 Y-26.830 E4.00807
G1 X-16.837 Y-26.491 E4.04484
G1 X-16.837 Y-22.163 E4.51328
G1 X-1.837 Y-22.163 E6.13654
G1 X-1.837 Y-9.460 E7.51113
G1 X-21.980 Y-15.619 E9.79053
G1 X-22.009 Y-15.768 E9.80698
G1 X-22.129 Y-16.137 E9.84894
G1 X-22.294 Y-16.488 E9.89091
G1 X-22.502 Y-16.815 E9.93288
G1 X-22.749 Y-17.114 E9.97485
G1 X-23.032 Y-17.379 E10.01682
G1 X-23.345 Y-17.607 E10.05879
G1 X-23.685 Y-17.794 E10.10076
G1 X-24.046 Y-17.937 E10.14272
G1 X-24.421 Y-18.033 E10.18469
G1 X-24.806 Y-18.082 E10.22664
G1 X-32.337 Y-18.088 E11.04169
G1 X-32.337 Y-11.912 E11.70999
G1 X-24.806 Y-11.918 E12.52503
G1 X-24.421 Y-11.967 E12.56698
G1 X-24.046 Y-12.063 E12.60895
G1 X-23.685 Y-12.206 E12.65092
G1 X-23.345 Y-12.393 E12.69289
G1 X-23.032 Y-12.621 E12.73485
G1 X-22.747 Y-12.887 E12.77703
G1 X-22.638 Y-13.023 E12.79586
G1 X-1.837 Y-6.663 E15.14968
G1 X-1.837 Y5.540 E16.47024
G1 X-21.980 Y-0.619 E18.74964
G1 X-22.009 Y-0.768 E18.76609
G1 X-22.129 Y-1.137 E18.80806
G1 X-22.294 Y-1.488 E18.85003
G1 X-22.502 Y-1.815 E18.89199
G1 X-22.749 Y-2.114 E18.93396
G1 X-23.032 Y-2.379 E18.97593
G1 X-23.345 Y-2.607 E19.01790
G1 X-23.685 Y-2.794 E19.05987
G1 X-24.046 Y-2.937 E19.10184
G1 X-24.421 Y-3.033 E19.14380
G1 X-24.806 Y-3.082 E19.18576
G1 X-32.337 Y-3.088 E20.00080
G1 X-32.337 Y3.088 E20.66910
G1 X-24.806 Y3.082 E21.48414
G1 X-24.421 Y3.033 E21.52609
G1 X-24.046 Y2.937 E21.56806
G1 X-23.685 Y2.794 E21.61003
G1 X-23.345 Y2.607 E21.65200
G1 X-23.032 Y2.379 E21.69396
G1 X-22.747 Y2.113 E21.73614
G1 X-22.638 Y1.977 E21.75497
G1 X-1.838 Y8.337 E24.10869
G1 X-1.845 Y10.229 E24.31353
G1 X-1.904 Y10.691 E24.36393
G1 X-1.952 Y10.906 E24.38768
G1 X-2.095 Y11.348 E24.43804
G1 X-2.284 Y11.750 E24.48608
G1 X-2.406 Y11.958 E24.51220
G1 X-2.682 Y12.338 E24.56302
G1 X-2.827 Y12.503 E24.58677
G1 X-3.166 Y12.822 E24.63711
G1 X-3.538 Y13.092 E24.68687
G1 X-3.946 Y13.316 E24.73721
G1 X-4.147 Y13.403 E24.76096
G1 X-4.589 Y13.547 E24.81130
G1 X-5.046 Y13.634 E24.86164
G1 X-5.265 Y13.655 E24.88540
G1 X-22.224 Y13.662 E26.72067
G1 X-22.293 Y13.513 E26.73851
G1 X-22.502 Y13.185 E26.78055
G1 X-22.749 Y12.886 E26.82252
G1 X-23.032 Y12.621 E26.86450
G1 X-23.345 Y12.393 E26.90646
G1 X-23.685 Y12.206 E26.94843
G1 X-24.046 Y12.063 E26.99040
G1 X-24.426 Y11.965 E27.03294
G1 X-24.984 Y11.913 E27.09355
G1 X-32.337 Y11.913 E27.88932
G1 X-32.337 Y18.087 E28.55756
G1 X-24.984 Y18.087 E29.35333
G1 X-24.426 Y18.035 E29.41394
G1 X-24.046 Y17.937 E29.45648
G1 X-23.685 Y17.794 E29.49845
G1 X-23.345 Y17.607 E29.54042
G1 X-23.032 Y17.379 E29.58238
G1 X-22.749 Y17.114 E29.62436
G1 X-22.502 Y16.815 E29.66633
G1 X-22.293 Y16.487 E29.70837
G1 X-22.224 Y16.337 E29.72623
G1 X-5.511 Y16.337 E31.53489
G1 X-5.041 Y16.367 E31.58580
G1 X-4.589 Y16.453 E31.63557
G1 X-4.152 Y16.595 E31.68533
G1 X-3.736 Y16.791 E31.73510
G1 X-3.343 Y17.040 E31.78544
G1 X-3.170 Y17.175 E31.80918
G1 X-2.831 Y17.493 E31.85953
G1 X-2.538 Y17.848 E31.90930
